assets/img/icons/directional/arrow-right-azure-radiance.svg

<svg width="16" height="16" viewBox="0 0 16 16" fill="none" xmlns="http://www.w3.org/2000/svg">
<path d="M13.5781 7.62187L7.675 2.49844C7.62969 2.45937 7.57188 2.4375 7.51094 2.4375H6.12813C6.0125 2.4375 5.95937 2.58125 6.04688 2.65625L11.5188 7.40625H2.375C2.30625 7.40625 2.25 7.4625 2.25 7.53125V8.46875C2.25 8.5375 2.30625 8.59375 2.375 8.59375H11.5172L6.04531 13.3438C5.95781 13.4203 6.01094 13.5625 6.12656 13.5625H7.55625C7.58594 13.5625 7.61562 13.5516 7.6375 13.5312L13.5781 8.37813C13.6322 8.33109 13.6756 8.27299 13.7053 8.20776C13.735 8.14253 13.7504 8.07168 13.7504 8C13.7504 7.92832 13.735 7.85747 13.7053 7.79224C13.6756 7.72701 13.6322 7.66891 13.5781 7.62187Z" fill="#0E95F6"/>
</svg>

<svg width="16" height="16" fill="none" xmlns="http://www.w3.org/2000/svg">
  <path d="M13.578 7.622L7.675 2.498a.25.25 0 00-.164-.06H6.128a.124.124 0 00-.081.218l5.472 4.75H2.375a.125.125 0 00-.125.125v.938c0 .069.056.125.125.125h9.142l-5.472 4.75a.124.124 0 00.082.219h1.43c.029 0 .059-.011.08-.032l5.941-5.153a.5.5 0 000-.756z" fill="#0E95F6"/>
</svg>
